X: 45
T:Gay Gordons, The
M:2/4
L:1/16
R:March
K:A
e2|"A"A3B c2BA|"D"d3e f2ed|"A"c2a2 c2BA|"E"c2B2 B2cB|"A"A3B c2BA|
"D"d3e f2ed|"A"c2a2 "E"ecdB|!
"A"c2A2 A2:||:e2|"A"a3f e2ec|"D"dcde f2ed|"A"c2a2 c2BA|
"E"c2B2 B2e2|
|1 "A"a3f e2ec|!"D"dcde f2ed|"A"c2a2 "E"ecdB|"A"c2 A2 A2:||2 "A"A3B c2BA
|"D"d3e f2ed|
"A"c2a2 "E"ecdB|"A"c2A2 A2||
